icon-themes/elementary_svg/cmd/sc_stylenewbyexample.svg

<svg viewBox="0 0 16 16" xmlns="http://www.w3.org/2000/svg" xmlns:xlink="http://www.w3.org/1999/xlink"><radialGradient id="a" cx="6" cy="1" gradientTransform="matrix(0 2.75 -3.25 0 9.25 -15.5)" gradientUnits="userSpaceOnUse" r="8"><stop offset="0" stop-color="#cdf87e"/><stop offset=".262" stop-color="#a2e34f"/><stop offset=".661" stop-color="#68b723"/><stop offset="1" stop-color="#1d7e0d"/></radialGradient><linearGradient id="b" gradientTransform="matrix(1 0 0 -1 0 16)" gradientUnits="userSpaceOnUse" x1="8" x2="8" y1="15" y2="1"><stop offset="0" stop-color="#fff"/><stop offset="1" stop-color="#fff" stop-opacity=".235"/><stop offset="1" stop-color="#fff" stop-opacity=".157"/><stop offset="1" stop-color="#fff"/></linearGradient>/&amp;gt;<path d="m5.5 5.5v-4.985h5v4.985h4.985v5h-4.985v4.985h-5v-4.985h-4.985v-5z" style="stroke:#0f5a00;stroke-linecap:round;stroke-linejoin:round;stroke-width:1.029;stroke-opacity:.5;fill:url(#a)"/><path d="m6 1v1h4v-1zm-5 5v.986h5v-.986zm9 0v.986h5v-.986zm-4 8v1h4v-1z" fill="url(#b)"/></svg>

<svg xmlns="http://www.w3.org/2000/svg" xmlns:xlink="http://www.w3.org/1999/xlink" viewBox="0 0 16 16"><defs><linearGradient id="a"><stop offset="0" stop-color="#cdf87e"/><stop offset=".262" stop-color="#a2e34f"/><stop offset=".661" stop-color="#68b723"/><stop offset="1" stop-color="#1d7e0d"/></linearGradient><radialGradient xlink:href="#a" id="b" cx="6" cy="1" fx="6" fy="1" r="8" gradientUnits="userSpaceOnUse" gradientTransform="matrix(0 2.75 -3.25 0 9.25 -15.5)"/></defs><linearGradient id="c" gradientTransform="matrix(1 0 0 -1 0 16)" gradientUnits="userSpaceOnUse" x1="8" x2="8" y1="15" y2="1"><stop offset="0" stop-color="#fff"/><stop offset="1" stop-color="#fff" stop-opacity=".235"/><stop offset="1" stop-color="#fff" stop-opacity=".157"/><stop offset="1" stop-color="#fff"/></linearGradient>/&gt;<path d="M5.5 5.5V.515h5V5.5h4.985v5H10.5v4.985h-5V10.5H.515v-5z" fill="url(#b)" stroke="#0f5a00" stroke-linecap="round" stroke-linejoin="round" stroke-width="1.029" stroke-opacity=".5"/><path d="M6 1v1h4V1H6zM1 6v.986h5V6H1zm9 0v.986h5V6h-5zm-4 8v1h4v-1H6z" fill="url(#c)"/></svg>
